symbols/web/alternate_email/materialsymbolsrounded/alternate_email_wght600_24px.svg

<svg xmlns="http://www.w3.org/2000/svg" height="24" width="24"><path d="M12 22.45q-2.15 0-4.05-.825t-3.325-2.25Q3.2 17.95 2.375 16.05 1.55 14.15 1.55 12t.825-4.05q.825-1.9 2.25-3.325Q6.05 3.2 7.95 2.375 9.85 1.55 12 1.55t4.05.825q1.9.825 3.325 2.25Q20.8 6.05 21.625 7.95q.825 1.9.825 4.05v1.45q0 1.65-1.087 2.7-1.088 1.05-2.738 1.05-.975 0-1.787-.425-.813-.425-1.288-1.1-.625.725-1.525 1.125-.9.4-2.025.4-2.15 0-3.675-1.512Q6.8 14.175 6.8 12q0-2.15 1.525-3.675T12 6.8q2.175 0 3.688 1.512Q17.2 9.825 17.2 12v1.325q0 .675.425 1.075.425.4 1 .4.55 0 .962-.4Q20 14 20 13.325V12q0-3.3-2.35-5.65Q15.3 4 12 4 8.725 4 6.362 6.362 4 8.725 4 12q0 3.3 2.35 5.65Q8.7 20 12 20h3.8q.5 0 .85.35t.35.85q0 .525-.35.887-.35.363-.85.363Zm0-7.65q1.15 0 1.975-.825.825-.825.825-1.975 0-1.15-.825-1.975Q13.15 9.2 12 9.2q-1.15 0-1.975.825Q9.2 10.85 9.2 12q0 1.15.825 1.975.825.825 1.975.825Z"/></svg>

<svg xmlns="http://www.w3.org/2000/svg" height="24" width="24"><path d="M12 22.45Q9.85 22.45 7.95 21.625Q6.05 20.8 4.625 19.375Q3.2 17.95 2.375 16.05Q1.55 14.15 1.55 12Q1.55 9.85 2.375 7.95Q3.2 6.05 4.625 4.625Q6.05 3.2 7.95 2.375Q9.85 1.55 12 1.55Q14.15 1.55 16.05 2.375Q17.95 3.2 19.375 4.625Q20.8 6.05 21.625 7.95Q22.45 9.85 22.45 12V13.45Q22.45 15.1 21.363 16.15Q20.275 17.2 18.625 17.2Q17.65 17.2 16.838 16.775Q16.025 16.35 15.55 15.675Q14.925 16.4 14.025 16.8Q13.125 17.2 12 17.2Q9.85 17.2 8.325 15.688Q6.8 14.175 6.8 12Q6.8 9.85 8.325 8.325Q9.85 6.8 12 6.8Q14.175 6.8 15.688 8.312Q17.2 9.825 17.2 12V13.325Q17.2 14 17.625 14.4Q18.05 14.8 18.625 14.8Q19.175 14.8 19.587 14.4Q20 14 20 13.325V12Q20 8.7 17.65 6.35Q15.3 4 12 4Q8.725 4 6.362 6.362Q4 8.725 4 12Q4 15.3 6.35 17.65Q8.7 20 12 20H15.8Q16.3 20 16.65 20.35Q17 20.7 17 21.2Q17 21.725 16.65 22.087Q16.3 22.45 15.8 22.45ZM12 14.8Q13.15 14.8 13.975 13.975Q14.8 13.15 14.8 12Q14.8 10.85 13.975 10.025Q13.15 9.2 12 9.2Q10.85 9.2 10.025 10.025Q9.2 10.85 9.2 12Q9.2 13.15 10.025 13.975Q10.85 14.8 12 14.8Z"/></svg>
